X: 22
T: Connie The Soldier
R: jig
M: 6/8
L: 1/8
K: Dmaj
A3 A2B|=cAG E2D|DGG DEG|AGE =cAG|
A2G A2B|=cAG E2D|DEG AGE|1 EDC DEG:|2 EDC D2e||
|:fdd edc|edc d2e|f2d e2d|=cAG Ade|
fed e2d|=cAB c3|=cAG EAG|1 EDC D2e:|2 EDC DEG||

